X: 24
T:Cwynfan Brydain
T:The Lamentation of Britain
M:C
L:1/4
Q:100
C:Trad
S:51 Welsh Airs
R:?
A:Wales
H:From a facsimile c.1840: A Choice Collection of Fifty-One Welsh Airs
H:adapted for The Harp, Piano-Forte, Harpsichord,
H:Violin, or Flute by Edward Jones
H:"Harper to His Late Majesty King George IV, when
H:Prince of Wales".
Z:brian_martin12345@yahoo.com
K:Gm
"Slow and Pathetic"
z2B2|G>AB>c|(BA)zB|GcBA|G^FzB|GAB>B|cde2|(d>c){Bc}BA|GG2z:||!
z2G/A/B/c/|dded|dBA>B|c2d>c|BAd2|G>ABd|cBA2:||!
z2B2|GdBA|G^FzB|GdBG|^FAB>B|cdB{AB}A{GA}|G4:||
